public/images/google-forms.svg

<svg enable-background="new 0 0 191.328 263.398" height="263.398" viewBox="0 0 191.328 263.398" width="191.328" xmlns="http://www.w3.org/2000/svg"><path d="m190.919 72.352-72.257-72.352-102.872.569s-4.114-.436-10.256 5.056c-3.856 3.872-4.259 8.565-4.297 9.782-.115.893-.099 1.443-.099 1.443l-1.138 229.753s1.515 15.152 14.016 16.289 160.615 0 160.615 0 15.271.363 16.26-15.154c.056-.488.098-.991.123-1.514.757-15.909-.095-173.872-.095-173.872zm-135.9 55.75c4.956 0 8.973 4.017 8.973 8.973s-4.018 8.974-8.973 8.974-8.973-4.018-8.973-8.974 4.017-8.973 8.973-8.973zm0 29.999c4.956 0 8.973 4.018 8.973 8.974s-4.018 8.974-8.973 8.974-8.973-4.018-8.973-8.974 4.017-8.974 8.973-8.974zm.268 46.875c-4.956 0-8.974-4.018-8.974-8.973 0-4.956 4.018-8.974 8.974-8.974s8.973 4.018 8.973 8.974c0 4.955-4.018 8.973-8.973 8.973zm88.795-2.41h-65.358v-12.054h65.358zm.267-29.733h-65.357v-12.053h65.357zm.268-29.732h-65.357v-12.053h65.357z" fill="#fff"/><path d="m118.945 0v54.927s.758 17.046 18.184 17.425c17.425.379 53.791 0 53.791 0z" opacity=".2"/></svg>

<?xml version="1.0" encoding="utf-8"?>
<!-- Generator: Adobe Illustrator 16.0.0, SVG Export Plug-In . SVG Version: 6.00 Build 0)  -->
<!DOCTYPE svg PUBLIC "-//W3C//DTD SVG 1.1//EN" "http://www.w3.org/Graphics/SVG/1.1/DTD/svg11.dtd">
<svg version="1.1"
	 id="svg8" sodipodi:docname="logo.svg" inkscape:version="0.92.4 (5da689c313, 2019-01-14)" xmlns:dc="http://purl.org/dc/elements/1.1/" xmlns:cc="http://creativecommons.org/ns#" xmlns:rdf="http://www.w3.org/1999/02/22-rdf-syntax-ns#" xmlns:svg="http://www.w3.org/2000/svg" xmlns:sodipodi="http://sodipodi.sourceforge.net/DTD/sodipodi-0.dtd" xmlns:inkscape="http://www.inkscape.org/namespaces/inkscape"
	 xmlns="http://www.w3.org/2000/svg" xmlns:xlink="http://www.w3.org/1999/xlink" x="0px" y="0px" width="191.328px"
	 height="263.398px" viewBox="0 0 191.328 263.398" enable-background="new 0 0 191.328 263.398" xml:space="preserve">
<sodipodi:namedview  inkscape:window-maximized="1" inkscape:window-y="-8" inkscape:window-x="-8" inkscape:window-height="1017" inkscape:window-width="1920" inkscape:pageshadow="2" inkscape:pageopacity="0.0" fit-margin-bottom="0" fit-margin-right="0" inkscape:current-layer="layer2" inkscape:document-units="mm" fit-margin-left="0" fit-margin-top="0" showgrid="false" inkscape:cy="294.33462" inkscape:cx="-811.54436" inkscape:zoom="0.49497475" borderopacity="1.0" bordercolor="#666666" pagecolor="#ffffff" id="base">
	</sodipodi:namedview>
<g id="layer1" transform="translate(-64.000574,-212.44245)" inkscape:groupmode="layer" inkscape:label="Livello 1">
	<g id="g4580" transform="translate(73.705357,-0.37797619)">
	</g>
</g>
<path fill="#FFFFFF" d="M190.919,72.352L118.662,0L15.79,0.569c0,0-4.114-0.436-10.256,5.056c-3.856,3.872-4.259,8.565-4.297,9.782
	C1.122,16.3,1.138,16.85,1.138,16.85L0,246.603c0,0,1.515,15.152,14.016,16.289c12.501,1.137,160.615,0,160.615,0
	s15.271,0.363,16.26-15.154c0.056-0.488,0.098-0.991,0.123-1.514C191.771,230.315,190.919,72.352,190.919,72.352z M55.019,128.102
	c4.956,0,8.973,4.017,8.973,8.973s-4.018,8.974-8.973,8.974s-8.973-4.018-8.973-8.974S50.063,128.102,55.019,128.102z
	 M55.019,158.101c4.956,0,8.973,4.018,8.973,8.974s-4.018,8.974-8.973,8.974s-8.973-4.018-8.973-8.974
	S50.063,158.101,55.019,158.101z M55.287,204.976c-4.956,0-8.974-4.018-8.974-8.973c0-4.956,4.018-8.974,8.974-8.974
	c4.956,0,8.973,4.018,8.973,8.974C64.26,200.958,60.242,204.976,55.287,204.976z M144.082,202.566H78.724v-12.054h65.358V202.566z
	 M144.349,172.833H78.992V160.78h65.357V172.833z M144.617,143.101H79.26v-12.053h65.357V143.101z"/>
<path id="path4533" inkscape:connector-curvature="0" opacity="0.2" d="M118.945,0v54.927c0,0,0.758,17.046,18.184,17.425
	c17.425,0.379,53.791,0,53.791,0L118.945,0z"/>
</svg>
